X:102
T:Martins Begravning
R:sl-polska
A:Gotland
Z:id:hn-sp-101
M:3/4
L:1/16
K:G
G3A B2BA B2G2 | BABc d2de d2B2 | d2ef g4 d3c | B2AG A8 :|
|: B2B2 cBAG A2A2 | B2B2 cBAG A2A2 | B2BB c4 B2d2 | dcAF G8 :|
